X: 1
T: Peek-A-Boo Waltz
S: Lee Owens and Viola Ruth "American Square Dances of the West and Southwest"
N: A version of the Scandinavian "Svenskarnas valz" (or "Svensk Annas vals")
R: waltz
Z: 2010 John Chambers <jc:trillian.mit.edu>
M: 3/4
L: 1/8
K: G
"INTRODUCTION"(Bc) |\
("G"d2 b2 a2) | (g2 f2 e2 ) | (d2 B2 e2) | d4 Md-Md | ("C"e2 c'2 b2) |
("D"a2 e2 f2) | "G"g6- | g4 || "DANCE"(Bc) | ("G"d2 b2 a2) | (g2 f2 e2) | (d2 B2 e2) |
d4 (Bc) | (d2 b2 a2) | (g2 f2 g2) | "D"a3 (gab) | a4 (Bc) | ("G"d2 b2 a2) |
(g2 f2 e2) | (d2 B2 e2) | d4 (Md-Md) | ("C"e2 c'2 b2) | ("D"a2 e2) Mf-Mf- | g4 ||
"CHORUS"(Bc) |\
(d4 g2) | (d4 Md2) | ("C"e4 c'2) | (e4 g2) | "D7"f3 (efg) | ("D7"b4 a2) | G6- | G4 |]
